X:1
T:James Gibb editions
T:I heard the voice of Jesus say - Barnby
%%score [ ( 1 2 ) ( 3 4 ) ]
L:1/8
Q:1/4=80
M:4/4
K:Eb
V:1 treble nm="Midi_74"
V:2 treble 
V:3 bass nm="Midi_74"
V:4 bass 
V:1
"^I heard the voice of Jesus say""^Joseph Barnby\n(1838-96)""^Horatio Bonar\n(1808-89)""^Vox Jesu (D.C.M.)" B2 | %1
 G2 B2 E2 e2 | e2 dc B2 || A2 G2 A2 B2 | c2 F6 |[M:4/4] B2 | G2 B2 E2 e2 | f3 e d2 || ed | %9
 c2 d2 e2 f2 | B6 || BA | G2 B2 e2 B2 | B2 AG A2 || B2 | G2 GF E2 F2 | G6 || G2 | A2 F2 B2 e2 | %19
 e2 dc B2 || A2 | G2 c2 F2 B2 | E6 || A4 G4 |] %24
V:2
 E2 | E2 D2 E2 E2 | E2 E2 F2 || D2 E2 E2 E2 | E2 (E4 D2) |[M:4/4] F2 | E2 B,2 C2 C2 | C2 F2 B,2 || %8
 EF | G2 F2 E2 E2 | (D2 F2 E2) || D2 | E2 D2 E2 G2 | F2 F2 F2 || F2 | E2 D2 C2 C2 | D6 || =E2 | %18
 F2 D2 _E2 E2 | A2 A2 A2 || F2 | E2 E2 E2 D2 | E6 || E4 E4 |] %24
V:3
 G,2 | B,2 B,A, G,2 B,2 | C2 A,2 F,2 || B,2 B,2 A,2 G,2 | _G,2 (F,4 B,2) |[M:4/4] B,2 | %6
 B,2 F,2 G,2 G,2 | F,2 =A,2 B,2 || B,2 | B,2 B,2 B,E DC | B,6 || B,2 | B,2 A,2 B,2 E2 | %13
 C2 C2 B,2 || D2 | E2 =B,2 C2 C2 | (C4 =B,2) || %17
"^1. I heard the voice of Jesus say, \n“Come unto me and rest;\nLay down, thou weary one, \nlay down thy head upon my breast.”\nI came to Jesus as I was, \nweary and worn and sad;\nI found in him a resting place, \nand He has made me glad.\n\n2. I heard the voice of Jesus say, \n“Behold, I freely give\nthe living water; thirsty one, \nstoop down, and drink, and live.”\nI came to Jesus, and I drank \nof that life-giving stream;\nMy thirst was quenched, my soul revived, \nand now I live in Him." C2 | %18
 C2 _B,2 B,2 B,2 | B,2 =B,C F2 || %20
"^\n3. I heard the voice of Jesus say, \n“I am this dark world’s light;\nLook unto me, thy morn shall rise, \nand all thy day be bright.”\nI looked to Jesus, and I found \nin Him my Star, my Sun;\nAnd in that light of life I’ll walk, \ntill trav’ling days are done." _B,2 | %21
 B,2 F,2 A,2 A,2 | G,6 || C4 B,4 |] %24
V:4
 E,2 | E,2 B,,2 C,2 G,,2 | A,,2 C,2 D,2 || B,,2 E,2 C,2 B,,2 | =A,,2 B,,6 |[M:4/4] D,2 | %6
 E,2 D,2 C,2 B,,2 | =A,,2 F,,2 G,,2 || G,F, | E,2 D,2 C,2 F,2 | (B,2 _A,2 G,2) || F,2 | %12
 E,2 F,2 G,2 E,2 | F,2 E,2 D,2 || B,,2 | E,2 G,,2 C,2 A,,2 | G,,6 || C,2 | F,2 A,2 G,2 G,2 | %19
 F,2 F,E, D,2 || D,2 | E,2 A,,2 B,,2 B,,2 | E,6 || A,,4 E,4 |] %24

